X: 081179
T: Humors of Ballycarroll
R: jig
S: "Ace and Deuce" (C.McCarthy, A.McCormack, E.O Donoghue)
Z: B.Black
M: 6/8
L: 1/8
K: F
AB|cAG F2A|BGF E2C|cAG F2A|FGd cAB|
cAG F2A|BGF E2C|DB,D CcB|1 AFE F :|2\
AFE F2||
c|fcA F2F|GBd GBd|fcA F2F|EGC EGC|
fcA F2F|GBd GBd|DB,D CcB|1 AFE F2 :|2\
AFE F3||
